public/icons/Rails.svg

<svg xmlns="http://www.w3.org/2000/svg" width="256" height="256" fill="none" viewBox="0 0 256 256"><rect width="256" height="256" fill="#D30001" rx="60"/><path fill="#fff" d="M227.87 116.783L228 116.912C228 116.912 226.501 117.97 224.914 119.293C174.825 82.2557 144.226 99.716 134.614 104.39C90.9629 128.747 103.577 188.54 103.834 189.733L103.838 189.751H34.1729C34.1729 189.751 36.8183 163.649 55.3368 132.785C73.8553 101.921 105.425 78.552 131.086 76.2593C180.566 71.3028 225.159 114.13 227.87 116.783ZM106.483 172.115L116.007 175.554C116.448 179.008 117.073 182.278 117.728 185.262L118.123 187.018L107.541 183.226C107.1 180.58 106.66 176.788 106.483 172.115ZM32.4091 143.543L42.5503 147.247C41.3157 150.102 39.7436 153.767 38.6018 156.647L38.1411 157.829L28 154.125C28.8818 151.744 30.7336 147.335 32.4091 143.543ZM110.452 140.016L116.801 145.042C116.095 147.794 115.559 150.545 115.192 153.296L114.949 155.36L107.806 149.716C108.511 146.541 109.305 143.279 110.452 140.016ZM126.06 115.413L130.028 121.409C128.476 123.032 127.037 124.654 125.756 126.367L124.825 127.67L120.593 121.321C122.18 119.293 124.032 117.265 126.06 115.413ZM62.9206 102.362L69.1816 107.829C67.5943 109.482 66.0567 111.235 64.6058 113.012L63.1852 114.795L56.3951 108.975C58.4233 106.771 60.6278 104.566 62.9206 102.362ZM150.31 102.009L152.25 107.829C150.205 108.464 148.159 109.268 146.113 110.196L144.578 110.915L142.55 104.831C144.755 103.861 147.312 102.891 150.31 102.009ZM170.945 99.8924C173.203 100.034 175.517 100.287 177.887 100.699L179.675 101.039L179.323 106.506C176.995 106.012 174.667 105.688 172.339 105.533L170.593 105.448L170.945 99.8924ZM98.5467 75.5538L102.515 81.6384C100.795 82.4982 99.1255 83.4572 97.4307 84.4782L95.7248 85.5185L91.6684 79.3457C94.0493 77.9347 96.3421 76.7002 98.5467 75.5538ZM171.122 72.2028C176.369 73.7019 178.626 74.7291 179.53 75.2101L179.675 75.2892L179.323 81.1975C177.441 80.4333 175.56 79.7082 173.653 79.0223L170.769 78.0229L171.122 72.2028ZM137.436 67L139.199 72.3792H138.317C136.399 72.3792 134.481 72.4288 132.563 72.5652L130.646 72.7319L128.97 67.5291C131.88 67.1764 134.702 67 137.436 67Z"/></svg>

<svg xmlns="http://www.w3.org/2000/svg" width="256" height="256" fill="none"><rect width="256" height="256" fill="#D30001" rx="60"/><path fill="#fff" d="m227.87 116.783.13.129s-1.499 1.058-3.086 2.381c-50.089-37.037-80.688-19.577-90.3-14.903-43.651 24.357-31.037 84.15-30.78 85.343l.004.018H34.173s2.645-26.102 21.164-56.966c18.518-30.864 50.088-54.233 75.749-56.526 49.48-4.956 94.073 37.871 96.784 40.524m-121.387 55.332 9.524 3.439c.441 3.454 1.066 6.724 1.721 9.708l.395 1.756-10.582-3.792c-.441-2.646-.881-6.438-1.058-11.111m-74.074-28.572 10.141 3.704c-1.234 2.855-2.806 6.52-3.948 9.4l-.46 1.182L28 154.125c.882-2.381 2.734-6.79 4.41-10.582m78.043-3.527 6.349 5.026a71 71 0 0 0-1.609 8.254l-.243 2.064-7.143-5.644c.705-3.175 1.499-6.437 2.646-9.7m15.608-24.603 3.968 5.996c-1.552 1.623-2.991 3.245-4.272 4.958l-.931 1.303-4.232-6.349a49 49 0 0 1 5.467-5.908m-63.14-13.051 6.262 5.467a87 87 0 0 0-4.576 5.183l-1.42 1.783-6.79-5.82c2.027-2.204 4.232-4.409 6.525-6.613m87.39-.353 1.94 5.82c-2.045.635-4.091 1.439-6.137 2.367l-1.535.719-2.028-6.084a64 64 0 0 1 7.76-2.822m20.635-2.117c2.258.142 4.572.395 6.942.807l1.788.34-.352 5.467a49.4 49.4 0 0 0-6.984-.973l-1.746-.085zM98.547 75.554l3.968 6.084c-1.72.86-3.39 1.82-5.084 2.84l-1.706 1.04-4.057-6.172c2.381-1.411 4.674-2.646 6.879-3.792m72.575-3.351c5.247 1.499 7.504 2.526 8.408 3.007l.145.08-.352 5.907a150 150 0 0 0-5.67-2.175l-2.884-1zM137.436 67l1.763 5.38h-.882c-1.918 0-3.836.049-5.754.185l-1.917.167-1.676-5.203a70 70 0 0 1 8.466-.529"/></svg>
